X: 38469
T: Steamboat
R: hornpipe
M: 4/4
K: Gmajor
|:(3def|g2 g>B d2 d2|B>cd>B G2 G2|B2 B2 B2 B2|d>cB>c A2 (3def|
g2 g>B d2 d2|B>cd>B G2 G2|B2 B2 B2 d2|e>cA>F G2:|
|:B>A|G>AB>c d>B G2|F>GA>B c>B A2|G>AB>c d>ef>g|a>gf>e d>cB>A|
G>AB>c d>B G2|F>GA>B c>B A2|G>AB>c d>ef>g|e>cA>F G2:|

